svg/fluentui-system-icons/ic_fluent_home_more_20_regular.svg

<svg width="20" height="20" viewBox="0 0 20 20" fill="none" xmlns="http://www.w3.org/2000/svg">
<path d="M7 11C7.55228 11 8 10.5523 8 10C8 9.44772 7.55228 9 7 9C6.44772 9 6 9.44772 6 10C6 10.5523 6.44772 11 7 11ZM10 11C10.5523 11 11 10.5523 11 10C11 9.44772 10.5523 9 10 9C9.44772 9 9 9.44772 9 10C9 10.5523 9.44772 11 10 11ZM14 10C14 10.5523 13.5523 11 13 11C12.4477 11 12 10.5523 12 10C12 9.44772 12.4477 9 13 9C13.5523 9 14 9.44772 14 10ZM7 14C7.55228 14 8 13.5523 8 13C8 12.4477 7.55228 12 7 12C6.44772 12 6 12.4477 6 13C6 13.5523 6.44772 14 7 14ZM11 13C11 13.5523 10.5523 14 10 14C9.44772 14 9 13.5523 9 13C9 12.4477 9.44772 12 10 12C10.5523 12 11 12.4477 11 13ZM13 14C13.5523 14 14 13.5523 14 13C14 12.4477 13.5523 12 13 12C12.4477 12 12 12.4477 12 13C12 13.5523 12.4477 14 13 14ZM8.9975 2.38432C9.56767 1.87189 10.4323 1.87189 11.0025 2.38432L16.5025 7.32728C16.8191 7.61186 17 8.0176 17 8.4434V15.4996C17 16.3282 16.3284 17 15.5 17H4.5C3.67157 17 3 16.3282 3 15.4996V8.4434C3 8.0176 3.18086 7.61186 3.4975 7.32728L8.9975 2.38432ZM10.3342 3.12839C10.1441 2.95759 9.85589 2.95759 9.66583 3.12839L4.16583 8.07136C4.06029 8.16622 4 8.30147 4 8.4434V15.4996C4 15.7758 4.22386 15.9997 4.5 15.9997H15.5C15.7761 15.9997 16 15.7758 16 15.4996V8.4434C16 8.30147 15.9397 8.16622 15.8342 8.07136L10.3342 3.12839Z" fill="#212121"/>
</svg>

<svg xmlns="http://www.w3.org/2000/svg" width="20" height="20"><path d="M7 11a1 1 0 1 0 0-2 1 1 0 0 0 0 2Zm3 0a1 1 0 1 0 0-2 1 1 0 0 0 0 2Zm4-1a1 1 0 1 1-2 0 1 1 0 0 1 2 0Zm-7 4a1 1 0 1 0 0-2 1 1 0 0 0 0 2Zm4-1a1 1 0 1 1-2 0 1 1 0 0 1 2 0Zm2 1a1 1 0 1 0 0-2 1 1 0 0 0 0 2ZM8.998 2.384a1.5 1.5 0 0 1 2.005 0l5.5 4.943A1.5 1.5 0 0 1 17 8.443V15.5a1.5 1.5 0 0 1-1.5 1.5h-11A1.5 1.5 0 0 1 3 15.5V8.443c0-.425.18-.831.498-1.116l5.5-4.943Zm1.336.744a.5.5 0 0 0-.668 0l-5.5 4.943A.5.5 0 0 0 4 8.443V15.5a.5.5 0 0 0 .5.5h11a.5.5 0 0 0 .5-.5V8.443a.5.5 0 0 0-.166-.372l-5.5-4.943Z"/></svg>
